public/img/general/logos/volkswagen.svg

<svg width="67" height="68" viewBox="0 0 67 68" fill="none" xmlns="http://www.w3.org/2000/svg">
<path d="M33.5002 0C15.0671 0.000621438 0 15.0677 0 33.5325C0 51.9656 15.0677 67.0016 33.4992 67.0016C51.9326 67.0016 67 51.9652 67 33.5325C67 15.0677 51.9329 0.000621438 33.5002 0ZM33.4992 4.75027C36.0173 4.75027 38.5012 5.06472 40.8608 5.69392L33.5949 25.795L26.2968 5.66161C28.5933 5.06472 31.0156 4.75027 33.4992 4.75027ZM4.71702 33.5325C4.71702 30.1671 5.2844 26.9567 6.35358 23.9695L19.6918 58.728C10.7571 53.8522 4.71702 44.3533 4.71702 33.5325ZM33.4992 62.2811C30.8249 62.2811 28.2456 61.9375 25.7931 61.2439L25.8235 60.6464L33.2485 41.3955L40.6725 60.6464L40.766 61.3692C38.4372 61.9664 36.0148 62.2811 33.4992 62.2811ZM39.0359 35.2936H27.4909L23.0889 46.6802L11.0718 15.5074C13.3364 12.7072 16.0735 10.3485 19.186 8.55533L27.6481 31.8645H39.5396L47.9678 8.65072C50.8619 10.3482 53.4409 12.5499 55.5805 15.1311L43.4382 46.6799L39.0359 35.2936ZM46.7421 59.0425L60.4264 23.3409C61.6215 26.5174 62.2497 29.9462 62.2497 33.5328C62.2497 44.6037 55.9288 54.231 46.7421 59.0425Z" fill="white"/>
</svg>

<svg width="67" height="68" fill="none" xmlns="http://www.w3.org/2000/svg"><path d="M33.5 0C15.067 0 0 15.068 0 33.532c0 18.434 15.068 33.47 33.5 33.47 18.433 0 33.5-15.037 33.5-33.47C67 15.069 51.933.002 33.5 0zm0 4.75c2.517 0 5.001.315 7.36.944l-7.265 20.101-7.298-20.133a28.648 28.648 0 017.202-.912zM4.716 33.532c0-3.365.567-6.575 1.637-9.562l13.338 34.758C10.757 53.852 4.717 44.353 4.717 33.532zm28.782 28.75c-2.674 0-5.253-.344-7.706-1.038l.03-.598 7.425-19.25 7.425 19.25.093.723a29.145 29.145 0 01-7.267.912zm5.537-26.988H27.49L23.089 46.68 11.072 15.507a29.157 29.157 0 018.114-6.952l8.462 23.31H39.54L47.968 8.65a28.89 28.89 0 017.612 6.48L43.439 46.68l-4.402-11.386zm7.706 23.748l13.684-35.701c1.195 3.176 1.824 6.605 1.824 10.192 0 11.07-6.321 20.698-15.508 25.51z" fill="#fff"/></svg>
